Origami/16x16/apps/zynaddsubfx.svg

<svg width="16" height="16" version="1.1" viewBox="0 0 16 16" xmlns="http://www.w3.org/2000/svg">
 <path d="m2.0332031 0a2.0002 2.0002 0 0 0 -1.2871094 3.5585938l2.7949218 2.2460937a2.0002 2.0002 0 0 0 -0.1054687 0.1523437l-3.1425782 5.1425778a2.0002 2.0002 0 0 0 1.5507812 3.03711l11 0.857422a2.0002 2.0002 0 0 0 1.369141 -3.583985l-3.056641-2.3339841 3.443359-4.5917969a2.0002 2.0002 0 0 0 -1.367187 -3.1855469l-11-1.2851562a2.0002 2.0002 0 0 0 -0.1992188 -0.013671875z" style="fill:#4f4f4f"/>
 <path d="M 2,12.142857 5.1428571,7 13,13 Z" style="fill:#1bd9a5"/>
 <path d="M 2,2 13,3.2857144 9.4642856,8 Z" style="fill:#1cadf4"/>
</svg>

<svg xmlns="http://www.w3.org/2000/svg" width="16" height="16" version="1.1" viewBox="0 0 16 16">
 <path style="fill:#4f4f4f" d="M 2.0332031 0 A 2.0002 2.0002 0 0 0 0.74609375 3.5585938 L 3.5410156 5.8046875 A 2.0002 2.0002 0 0 0 3.4355469 5.9570312 L 0.29296875 11.099609 A 2.0002 2.0002 0 0 0 1.84375 14.136719 L 12.84375 14.994141 A 2.0002 2.0002 0 0 0 14.212891 11.410156 L 11.15625 9.0761719 L 14.599609 4.484375 A 2.0002 2.0002 0 0 0 13.232422 1.2988281 L 2.2324219 0.013671875 A 2.0002 2.0002 0 0 0 2.0332031 0 z"/>
 <path style="fill:#1bd9a5" d="M 2,12.142857 5.1428571,7 13,13 Z"/>
 <path style="fill:#1cadf4" d="M 2,2 13,3.2857144 9.4642856,8 Z"/>
</svg>
